X:18975
T:Xiraldilla (CT 106)
R:Xiraldilla
C:Tradicional
S:Música Tradicional Asturiana, (C) Tello & Tito. Asturies, 2001.
S:http://pagina.de/MusTradAst <telloytito@asturies.org>
N:Xirladilla, dictada por Milagros Váquez Martínez, de veintidós años, de Murias, ayuntamiento de Quirós.
O:Murias (Quirós)
A:Asturies
Z:Cancioneru de Torner 106
M:2/4
L:1/8
Q:1/4=152
W:Aquella palomina que del mar salió,
W:aquella palomina, pa mi ya voló.
W:
W:Sigue la paloma en el mar,
W:síguela que se va embarcar.
W:
W:Que si tú no la sigues,
W:quién la va seguir.
W:
W:¡Ai! amante del alma,
W:que se va a morir.
W:
W:Sigue la paloma en el mar,
W:síguela que se va embarcar.
K:C
G
|GA Bc|dd de|f2 e2|d2 z G|
GA Bc|dd de|f2 e2|d2 z2|
|d2 c2|B2 dc|B2 A2|G4|
d2 c2|B2 dc|B2 A2|G2 z G|
GA Bc|dd de|f2 e2|d2 z G|
GA Bc|dd de|f2 e2|d2 z2|
d2 c2|B2 dc|B2 A2|G4|
d2 c2|B2 dc|B2 A2|G2 z2||


